src/assets/svg/lock.svg

<?xml version="1.0" standalone="no"?><!DOCTYPE svg PUBLIC "-//W3C//DTD SVG 1.1//EN" "http://www.w3.org/Graphics/SVG/1.1/DTD/svg11.dtd"><svg t="1540455553465" class="icon" style="" viewBox="0 0 1024 1024" version="1.1" xmlns="http://www.w3.org/2000/svg" p-id="53075" xmlns:xlink="http://www.w3.org/1999/xlink" width="32" height="32"><defs><style type="text/css"></style></defs><path d="M695.190769 474.425333 328.809939 474.425333l0-137.392664c0-50.567986 17.889608-93.74198 53.669022-129.52218 35.779413-35.7802 78.953408-53.669808 129.521983-53.669022s93.742767 17.890592 129.52218 53.669022c35.779413 35.77843 53.669022 78.952424 53.669022 129.52218l0 137.392664L695.190769 474.425333zM99.820396 543.121665l0 412.179368c0 19.082314 6.678761 35.302134 20.036479 48.659853s29.577538 20.036479 48.659853 20.036479l686.964696 0c19.082314 0 35.302134-6.678761 48.659853-20.036479 13.357522-13.357718 20.036479-29.577538 20.036479-48.659853L924.177755 543.121665c0-19.082314-6.678761-35.302134-20.036479-48.659853-13.357718-13.357718-29.577735-20.036479-48.659853-20.036479l-22.899171 0 0-137.392664c0-87.77904-31.486065-163.154132-94.458194-226.125475C675.151733 47.935851 599.77664 16.449787 511.998387 16.449S348.845042 47.934082 285.872912 110.907194c-62.972129 62.973112-94.458194 138.348205-94.458194 226.125475l0 137.392664L168.515548 474.425333c-19.082314 0-35.302134 6.678761-48.659853 20.036479-13.357522 13.357718-20.036479 29.577538-20.036479 48.659853L99.820396 543.121665z" p-id="53076"></path></svg>

<svg class="icon" viewBox="0 0 1024 1024" xmlns="http://www.w3.org/2000/svg" width="32" height="32"><path d="M695.19 474.425H328.81V337.033c0-50.568 17.89-93.742 53.669-129.523 35.78-35.78 78.953-53.67 129.522-53.669s93.743 17.891 129.522 53.67c35.78 35.778 53.67 78.952 53.67 129.522v137.392h-.002zM99.82 543.122V955.3c0 19.082 6.68 35.302 20.037 48.66s29.577 20.036 48.66 20.036H855.48c19.083 0 35.303-6.678 48.66-20.036 13.358-13.358 20.037-29.578 20.037-48.66v-412.18c0-19.082-6.679-35.301-20.037-48.66-13.357-13.357-29.577-20.036-48.66-20.036h-22.899V337.033c0-87.78-31.486-163.154-94.458-226.126C675.152 47.936 599.777 16.45 511.998 16.45s-163.153 31.485-226.125 94.458c-62.972 62.973-94.458 138.348-94.458 226.126v137.392h-22.9c-19.082 0-35.302 6.68-48.66 20.037-13.357 13.358-20.036 29.577-20.036 48.66h.001z"/></svg>
